SVG_Azure_All/Azure AD Authentication Method.svg

<?xml version="1.0" encoding="UTF-8" standalone="no"?>
<!-- Generated by Microsoft Visio, SVG Export Azure AD Authentication Method.svg Page-1 -->

<svg
   xmlns:dc="http://purl.org/dc/elements/1.1/"
   xmlns:cc="http://creativecommons.org/ns#"
   xmlns:rdf="http://www.w3.org/1999/02/22-rdf-syntax-ns#"
   xmlns:svg="http://www.w3.org/2000/svg"
   xmlns="http://www.w3.org/2000/svg"
   xmlns:sodipodi="http://sodipodi.sourceforge.net/DTD/sodipodi-0.dtd"
   xmlns:inkscape="http://www.inkscape.org/namespaces/inkscape"
   width="0.78738964in"
   height="0.74802142in"
   viewBox="0 0 56.691962 53.857683"
   xml:space="preserve"
   class="st9"
   version="1.1"
   id="svg86"
   sodipodi:docname="Azure AD Authentication Method.svg"
   style="font-size:12px;overflow:visible;color-interpolation-filters:sRGB;fill:none;fill-rule:evenodd;stroke-linecap:square;stroke-miterlimit:3"
   inkscape:version="0.92.5 (2060ec1f9f, 2020-04-08)"><metadata
   id="metadata90"><rdf:RDF><cc:Work
       rdf:about=""><dc:format>image/svg+xml</dc:format><dc:type
         rdf:resource="http://purl.org/dc/dcmitype/StillImage" /></cc:Work></rdf:RDF></metadata><sodipodi:namedview
   pagecolor="#ffffff"
   bordercolor="#666666"
   borderopacity="1"
   objecttolerance="10"
   gridtolerance="10"
   guidetolerance="10"
   inkscape:pageopacity="0"
   inkscape:pageshadow="2"
   inkscape:window-width="640"
   inkscape:window-height="480"
   id="namedview88"
   showgrid="false"
   inkscape:zoom="1.4523234"
   inkscape:cx="37.795237"
   inkscape:cy="35.888683"
   inkscape:window-x="0"
   inkscape:window-y="0"
   inkscape:window-maximized="0"
   inkscape:current-layer="svg86" />
	<style
   type="text/css"
   id="style2">
	<![CDATA[
		.st1 {fill:#50e6ff;stroke:none;stroke-linecap:butt;stroke-width:34}
		.st2 {fill:#ffffff;stroke:none;stroke-linecap:butt;stroke-width:34}
		.st3 {fill:url(#grad0-12);stroke:none;stroke-linecap:butt;stroke-width:34}
		.st4 {fill:#53b1e0;stroke:none;stroke-linecap:butt;stroke-width:34}
		.st5 {fill:#9cebff;stroke:none;stroke-linecap:butt;stroke-width:34}
		.st6 {fill:url(#grad0-20);stroke:none;stroke-linecap:butt;stroke-width:34}
		.st7 {fill:#ffca00;stroke:none;stroke-linecap:butt;stroke-width:34}
		.st8 {fill:#ff9300;fill-opacity:0.75;stroke:none;stroke-linecap:butt;stroke-width:34}
		.st9 {fill:none;fill-rule:evenodd;font-size:12px;overflow:visible;stroke-linecap:square;stroke-miterlimit:3}
	]]>
	</style>

	<defs
   id="Patterns_And_Gradients">
		<linearGradient
   id="grad0-12"
   x1="0"
   y1="59.926261"
   x2="31.409575"
   y2="59.926261"
   gradientTransform="scale(0.74945299,1.3343065)"
   gradientUnits="userSpaceOnUse">
			<stop
   offset="0"
   stop-color="#1988d9"
   stop-opacity="1"
   id="stop4" />
			<stop
   offset="0.9"
   stop-color="#54aef0"
   stop-opacity="1"
   id="stop6" />
		</linearGradient>
		<linearGradient
   id="grad0-20"
   x1="0"
   y1="114.37109"
   x2="24.985086"
   y2="114.37109"
   gradientTransform="scale(1.1434822,0.87452172)"
   gradientUnits="userSpaceOnUse">
			<stop
   offset="0.1"
   stop-color="#54aef0"
   stop-opacity="1"
   id="stop9" />
			<stop
   offset="0.29"
   stop-color="#4fabee"
   stop-opacity="1"
   id="stop11" />
			<stop
   offset="0.51"
   stop-color="#41a2e9"
   stop-opacity="1"
   id="stop13" />
			<stop
   offset="0.74"
   stop-color="#2a93e0"
   stop-opacity="1"
   id="stop15" />
			<stop
   offset="0.88"
   stop-color="#1988d9"
   stop-opacity="1"
   id="stop17" />
		</linearGradient>
	</defs>
	<g
   id="g84"
   transform="translate(-34.000261,-33.9959)">
		<title
   id="title21">Page-1</title>
		<g
   id="group8791-1"
   transform="translate(34,-34.0157)">
			<title
   id="title23">Azure AD Authentication Method</title>
			<g
   id="group8792-2">
				<title
   id="title25">Icon-identity-227</title>
				<g
   id="shape8793-3"
   transform="translate(0,-2.82519)">
					<title
   id="title27">Sheet.8793</title>
					<path
   d="m 3.2,100.05 24.92,16 25.37,-16.03 3.2,3.64 L 28.12,121.87 0,103.69 Z"
   class="st1"
   id="path29"
   inkscape:connector-curvature="0"
   style="fill:#50e6ff;stroke:none;stroke-width:34;stroke-linecap:butt" />
				</g>
				<g
   id="shape8794-5"
   transform="translate(5.06072,-11.9484)">
					<title
   id="title32">Sheet.8794</title>
					<path
   d="M 0,107.14 23.06,79.96 46.6,107.18 23.06,121.87 Z"
   class="st2"
   id="path34"
   inkscape:connector-curvature="0"
   style="fill:#ffffff;stroke:none;stroke-width:34;stroke-linecap:butt" />
				</g>
				<g
   id="shape8795-7"
   transform="translate(5.06072,-11.9484)">
					<title
   id="title37">Sheet.8795</title>
					<path
   d="m 23.06,79.96 v 41.91 L 0,107.14 Z"
   class="st1"
   id="path39"
   inkscape:connector-curvature="0"
   style="fill:#50e6ff;stroke:none;stroke-width:34;stroke-linecap:butt" />
				</g>
				<g
   id="shape8796-9"
   transform="translate(28.1222,-11.9484)">
					<title
   id="title42">Sheet.8796</title>
					<path
   d="m 0,79.96 v 41.91 l 23.54,-14.69 z"
   class="st3"
   id="path44"
   inkscape:connector-curvature="0"
   style="fill:url(#grad0-12);stroke:none;stroke-width:34;stroke-linecap:butt" />
				</g>
				<g
   id="shape8797-13"
   transform="translate(28.1222,-11.9484)">
					<title
   id="title47">Sheet.8797</title>
					<path
   d="M 0,101.6 23.54,107.18 0,121.87 Z"
   class="st4"
   id="path49"
   inkscape:connector-curvature="0"
   style="fill:#53b1e0;stroke:none;stroke-width:34;stroke-linecap:butt" />
				</g>
				<g
   id="shape8798-15"
   transform="translate(5.06072,-11.9484)">
					<title
   id="title52">Sheet.8798</title>
					<path
   d="M 23.06,121.87 0,107.14 23.06,101.6 Z"
   class="st5"
   id="path54"
   inkscape:connector-curvature="0"
   style="fill:#9cebff;stroke:none;stroke-width:34;stroke-linecap:butt" />
				</g>
				<g
   id="shape8799-17"
   transform="translate(28.1222,-2.82519)">
					<title
   id="title57">Sheet.8799</title>
					<path
   d="M 0,121.87 28.57,103.66 25.37,100.02 0,116.05 Z"
   class="st6"
   id="path59"
   inkscape:connector-curvature="0"
   style="fill:url(#grad0-20);stroke:none;stroke-width:34;stroke-linecap:butt" />
				</g>
				<g
   id="shape8800-21"
   transform="translate(32.6502)">
					<title
   id="title62">Sheet.8800</title>
					<path
   d="m 19.14,102.48 a 3.71547,3.67464 -180 0 0 0,-5.23 l -6.4,-6.33 a 3.71547,3.67464 -180 0 0 -5.26,0 l -6.4,6.33 a 3.77953,3.73799 -180 0 0 0,5.23 l 5.35,5.29 a 1.02496,1.01369 0 0 1 0.28,0.73 v 9.82 a 1.15308,1.1404 -180 0 0 0.39,0.89 l 2.43,2.4 a 0.800747,0.791947 -180 0 0 1.18511,0 l 2.34489,-2.31 1.41,-1.39 a 0.480448,0.475168 -180 0 0 0,-0.66524 l -1,-0.98476 a 0.512478,0.506846 0 0 1 0,-0.76027 l 1,-0.97973 a 0.512478,0.506846 -180 0 0 0,-0.69691 l -1,-0.98309 a 0.480448,0.475168 0 0 1 0,-0.72859 l 1,-1.01141 a 0.480448,0.475168 -180 0 0 0,-0.66524 L 13.06,109.04 v -0.51 z M 10.11,92.44 A 2.11397,2.09074 0 1 1 8,94.53 2.11397,2.09074 0 0 1 10.11,92.44 Z"
   class="st7"
   id="path64"
   inkscape:connector-curvature="0"
   style="fill:#ffca00;stroke:none;stroke-width:34;stroke-linecap:butt" />
				</g>
				<g
   id="shape8801-23"
   transform="translate(41.0176,-3.07901)">
					<title
   id="title67">Sheet.8801</title>
					<path
   d="m 0.14,121.78 a 0.448419,0.44349 -180 0 0 0.768717,-0.34846 L 0.91,113.32 A 0.512478,0.506846 -180 0 0 0.717821,112.90819 0.448419,0.44349 -180 0 0 0.013163,113.32 L 0.01,121.27 a 0.480448,0.475168 -180 0 0 0.12812,0.50685 z"
   class="st8"
   id="path69"
   inkscape:connector-curvature="0"
   style="fill:#ff9300;fill-opacity:0.75;stroke:none;stroke-width:34;stroke-linecap:butt" />
				</g>
				<g
   id="shape8802-25"
   transform="translate(37.6351,-21.2617)">
					<title
   id="title72">Sheet.8802</title>
					<path
   d="m 0,121.3 a 0.576551,0.570215 -180 0 0 0.576538,0.5702 L 9.96,121.87 a 0.576551,0.570215 -180 0 0 0.576538,-0.5702 L 10.54,121.21 A 0.576551,0.570215 -180 0 0 9.963462,120.6398 L 0.58,120.64 a 0.576551,0.570215 -180 0 0 -0.576538,0.5702 z"
   class="st8"
   id="path74"
   inkscape:connector-curvature="0"
   style="fill:#ff9300;fill-opacity:0.75;stroke:none;stroke-width:34;stroke-linecap:butt" />
				</g>
				<g
   id="shape8803-27"
   transform="translate(37.6351,-19.266)">
					<title
   id="title77">Sheet.8803</title>
					<path
   d="m 0,121.3 a 0.576551,0.570215 -180 0 0 0.576538,0.5702 L 9.96,121.87 a 0.576551,0.570215 -180 0 0 0.576538,-0.5702 L 10.54,121.21 A 0.576551,0.570215 -180 0 0 9.963462,120.6398 L 0.58,120.64 a 0.576551,0.570215 -180 0 0 -0.576538,0.5702 z"
   class="st8"
   id="path79"
   inkscape:connector-curvature="0"
   style="fill:#ff9300;fill-opacity:0.75;stroke:none;stroke-width:34;stroke-linecap:butt" />
				</g>
			</g>
		</g>
	</g>
</svg>

<?xml version="1.0" encoding="UTF-8" standalone="no"?>
<!DOCTYPE svg PUBLIC "-//W3C//DTD SVG 1.1//EN" "http://www.w3.org/Graphics/SVG/1.1/DTD/svg11.dtd">
<!-- Generated by Microsoft Visio, SVG Export Azure AD Authentication Method.svg Page-1 -->
<svg xmlns="http://www.w3.org/2000/svg" xmlns:xlink="http://www.w3.org/1999/xlink" xmlns:ev="http://www.w3.org/2001/xml-events"
		width="1.73185in" height="1.69269in" viewBox="0 0 124.693 121.874" xml:space="preserve" color-interpolation-filters="sRGB"
		class="st9">
	<style type="text/css">
	<![CDATA[
		.st1 {fill:#50e6ff;stroke:none;stroke-linecap:butt;stroke-width:34}
		.st2 {fill:#ffffff;stroke:none;stroke-linecap:butt;stroke-width:34}
		.st3 {fill:url(#grad0-12);stroke:none;stroke-linecap:butt;stroke-width:34}
		.st4 {fill:#53b1e0;stroke:none;stroke-linecap:butt;stroke-width:34}
		.st5 {fill:#9cebff;stroke:none;stroke-linecap:butt;stroke-width:34}
		.st6 {fill:url(#grad0-20);stroke:none;stroke-linecap:butt;stroke-width:34}
		.st7 {fill:#ffca00;stroke:none;stroke-linecap:butt;stroke-width:34}
		.st8 {fill:#ff9300;fill-opacity:0.75;stroke:none;stroke-linecap:butt;stroke-width:34}
		.st9 {fill:none;fill-rule:evenodd;font-size:12px;overflow:visible;stroke-linecap:square;stroke-miterlimit:3}
	]]>
	</style>

	<defs id="Patterns_And_Gradients">
		<linearGradient id="grad0-12" x1="0" y1="0" x2="1" y2="0" gradientTransform="rotate(-133.50152230549 0.5 0.5)">
			<stop offset="0" stop-color="#1988d9" stop-opacity="1"/>
			<stop offset="0.9" stop-color="#54aef0" stop-opacity="1"/>
		</linearGradient>
		<linearGradient id="grad0-20" x1="0" y1="0" x2="1" y2="0" gradientTransform="rotate(65.832309755673 0.5 0.5)">
			<stop offset="0.1" stop-color="#54aef0" stop-opacity="1"/>
			<stop offset="0.29" stop-color="#4fabee" stop-opacity="1"/>
			<stop offset="0.51" stop-color="#41a2e9" stop-opacity="1"/>
			<stop offset="0.74" stop-color="#2a93e0" stop-opacity="1"/>
			<stop offset="0.88" stop-color="#1988d9" stop-opacity="1"/>
		</linearGradient>
	</defs>
	<g>
		<title>Page-1</title>
		<g id="group8596-1" transform="translate(34,-34.0157)">
			<title>Azure AD Authentication Method</title>
			<g id="group8597-2">
				<title>Icon-identity-227</title>
				<g id="shape8598-3" transform="translate(0,-2.82519)">
					<title>Sheet.8598</title>
					<path d="M3.2 100.05 L28.12 116.05 L53.49 100.02 L56.69 103.66 L28.12 121.87 L0 103.69 L3.2 100.05 Z"
							class="st1"/>
				</g>
				<g id="shape8599-5" transform="translate(5.06072,-11.9484)">
					<title>Sheet.8599</title>
					<path d="M0 107.14 L23.06 79.96 L46.6 107.18 L23.06 121.87 L0 107.14 Z" class="st2"/>
				</g>
				<g id="shape8600-7" transform="translate(5.06072,-11.9484)">
					<title>Sheet.8600</title>
					<path d="M23.06 79.96 L23.06 121.87 L0 107.14 L23.06 79.96 Z" class="st1"/>
				</g>
				<g id="shape8601-9" transform="translate(28.1222,-11.9484)">
					<title>Sheet.8601</title>
					<path d="M0 79.96 L0 121.87 L23.54 107.18 L0 79.96 Z" class="st3"/>
				</g>
				<g id="shape8602-13" transform="translate(28.1222,-11.9484)">
					<title>Sheet.8602</title>
					<path d="M0 101.6 L23.54 107.18 L0 121.87 L0 101.6 Z" class="st4"/>
				</g>
				<g id="shape8603-15" transform="translate(5.06072,-11.9484)">
					<title>Sheet.8603</title>
					<path d="M23.06 121.87 L0 107.14 L23.06 101.6 L23.06 121.87 Z" class="st5"/>
				</g>
				<g id="shape8604-17" transform="translate(28.1222,-2.82519)">
					<title>Sheet.8604</title>
					<path d="M0 121.87 L28.57 103.66 L25.37 100.02 L0 116.05 L0 121.87 Z" class="st6"/>
				</g>
				<g id="shape8605-21" transform="translate(32.6502,-2.55795E-13)">
					<title>Sheet.8605</title>
					<path d="M19.14 102.48 A3.71547 3.67464 -180 0 0 19.14 97.25 L12.74 90.92 A3.71547 3.67464 -180 0 0 7.48 90.92
								 L1.08 97.25 A3.77953 3.73799 -180 0 0 1.08 102.48 L6.43 107.77 A1.02496 1.01369 0 0 1 6.71 108.5
								 L6.71 118.32 A1.15308 1.1404 -180 0 0 7.1 119.21 L9.53 121.61 a0.800747 0.791947 -180 0 0 1.18511
								 0 L13.06 119.3 L14.47 117.91 a0.480448 0.475168 -180 0 0 0 -0.665236 L13.47 116.26 a0.512478 0.506846
								 0 0 1 1.24345E-14 -0.760269 L14.47 114.52 a0.512478 0.506846 -180 0 0 -1.95399E-14 -0.696914 L13.47
								 112.84 a0.480448 0.475168 0 0 1 8.88178E-15 -0.728591 L14.47 111.1 a0.480448 0.475168 -180 0 0 2.4869E-14
								 -0.665236 L13.06 109.04 L13.06 108.53 L19.14 102.48 ZM10.11 92.44 A2.11397 2.09074 0 1 1 8 94.53
								 A2.11397 2.09074 0 0 1 10.11 92.44 Z" class="st7"/>
				</g>
				<g id="shape8606-23" transform="translate(41.0176,-3.07901)">
					<title>Sheet.8606</title>
					<path d="M0.14 121.78 a0.448419 0.44349 -180 0 0 0.768717 -0.348457 L0.91 113.32 a0.512478 0.506846 -180 0 0
								 -0.192179 -0.411813 a0.448419 0.44349 -180 0 0 -0.704658 0.411813 L0.01 121.27 a0.480448 0.475168
								 -180 0 0 0.12812 0.506846 Z" class="st8"/>
				</g>
				<g id="shape8607-25" transform="translate(37.6351,-21.2617)">
					<title>Sheet.8607</title>
					<path d="M-0 121.3 a0.576551 0.570215 -180 0 0 0.576538 0.570202 L9.96 121.87 a0.576551 0.570215 -180 0 0 0.576538
								 -0.570202 L10.54 121.21 a0.576551 0.570215 -180 0 0 -0.576538 -0.570202 L0.58 120.64 a0.576551 0.570215
								 -180 0 0 -0.576538 0.570202 L0 121.3 Z" class="st8"/>
				</g>
				<g id="shape8608-27" transform="translate(37.6351,-19.266)">
					<title>Sheet.8608</title>
					<path d="M-0 121.3 a0.576551 0.570215 -180 0 0 0.576538 0.570202 L9.96 121.87 a0.576551 0.570215 -180 0 0 0.576538
								 -0.570202 L10.54 121.21 a0.576551 0.570215 -180 0 0 -0.576538 -0.570202 L0.58 120.64 a0.576551 0.570215
								 -180 0 0 -0.576538 0.570202 L0 121.3 Z" class="st8"/>
				</g>
			</g>
		</g>
	</g>
</svg>
